!!!!SEGMENT: pl-kc--40102-iii-1-saf--002-014_zielenski-mikolaj--communiones-totius-anni-dominica-octava-post-pentecostes-gustate-et-videte.krn
!!!cenid: 16xx:1545
!!!COM: Zieleński, Mikołaj
!!!COM-rismid: pe30013481
!!!CDT:
!!!CNT: Polish
!!!OTL: Communiones totius anni
!!!OMV: 014
!!!PDT: 1611
!!!AGN:
!!!SMS-siglum: PL-Kc
!!!SMS-shelfmark: 40102 III/1 Saf.
!!!SMS-shelfwork: 002-014 W
!!!SMS-variant:
!!!SMS-altvar:
!!!NIFC-rismid: 990069887
!!!URL-scan: https://cyfrowe.mnk.pl/dlibra/publication/24235/edition/23926/content?ref=desc
!!!ONB-nifc: UWAGA: str. 52. Uwaga: W xml metrum 2/1 do źródłowego C| i odpowiednio 3/1 do 3/2
!!!key: d:dor
**kern	**kern
*group1	*group1
*part2	*part1
*staff2	*staff1
*I""Organo	*
*Iorgan	*Iorgan
*ICklav	*ICklav
*clefF4	*clefC1
*k[b-]	*k[b-]
*g:	*g:
*M2/1	*M2/1
*met(C|)	*met(C|)
=1	=1
!LO:TX:t=P:problem:all/middle:global	!LO:TX:t=P:problem:all/middle:global
!LO:TX:t=P:problem:all\middle:global	!LO:TX:t=P:problem:all/middle:global
!LO:TX:a:t=Guſtate,& videre.	!LO:TX:a:t=Dominica oćtaua poſt Pentecoſtes.    Solus Cantus canet.
1G	1r
1B-	1d
=2-	=2-
1.A	1f
.	[y1e
2c\	.
=3	=3
!	!LO:N:vis=4:xstem:cue
2c\	2e]
2B-\	1g
1D	.
.	2.f/
=4-	=4-
1F	.
.	4e/
.	2d/
2E\	1g
[y2G\	.
=5	=5
!LO:N:xstem:cue	!
4G]	1b-
4F\	.
4E-X\	.
4D/	.
2C/	1a
2D/	.
=6-	=6-
1GG	2r
.	1dd
1AA	.
.	2cc\
=7	=7
2BB-/	1b-
4AA/	.
4GG/	.
1D	1a
=8-	=8-
1GG	0g
2r	.
2GG/	.
!LO:SIC:v:t=custos D	!LO:SIC:v:t=custos d
!LO:LB:g=original	!LO:LB:g=original
=9	=9
1.D	2r
.	2d/
.	2f/
2C/	2e/
=10-	=10-
2.BB-/	2r
.	2dd\
4C/	.
4D/	1ff
4E\	.
4F\	.
4G\	.
=11	=11
2.A\	1ee
4G\	.
2.F\	2r
.	1a\
4E\	.
=12-	=12-
1D	.
!	!LO:N:acc=#
.	2bn\
1A	2cc#X\
.	[y2dd\
=13	=13
!	!LO:N:xstem:cue
1AA	4dd]
.	8cc#X\
!	!LO:SIC:v:s:t=8bn
.	8b-\
.	2cc#\
2D/	1dd
2.G\	.
=14-	=14-
.	2r
4G\	.
2G\	2.dd\
2F\	.
.	4dd\
2D/	2dd\
=15	=15
1.F	2cc\
.	2a\
.	2cc\
2C/	2cc\
=16-	=16-
2D/	1b-
2E\	.
2.F\	2a\
.	2cc\
4E\	.
=17	=17
2D/	2b-\
2GG/	2b-\
2D/	1a
1F\	.
=18-	=18-
.	2r
2E\	2.g/
1G	.
.	4g/
.	2g/
=19	=19
2D/	2f/
2.D/	2d/
.	2f/
4E\	.
4F\	2f/
4G\	.
=20-	=20-
2A\	2e/
1G	4g/
.	4a\
.	4b-\
.	4cc\
2GG/	[<2dd\
=21	=21
0D	4dd]
.	4cc\
.	2b-\
.	1a
=22-	=22-
2GG/	1g
2G\	.
2F\	2d/
2E\	2c/
=23	=23
2.D/	2r
.	2dd\
4E\	.
4F\	2cc\
8E\	.
8F\	.
4G\	2b-\
4GG/	.
=24-	=24-
2D/	1a
1F	.
.	2r
2E\	2g/
=25	=25
2D/	2f/
2AA/	2e/
2BB-/	1d
4GG/	.
4AA/	.
=26-	=26-
4BB-/	2r
4C/	.
4D/	2b-\
4E\	.
4F\	2a\
4D/	.
2.G\	2g/
=27	=27
.	2.dd\
4D/	.
2.F\	.
.	4a\
.	2cc\
4C/	.
2E-X\	4b-\
.	4g/
=28-	=28-
1D	1a
2GG/	[y1g
2G\	.
=29	=29
!	!LO:N:vis=4:xstem:cue
1B-	2g]
.	2d/
2.A\	4f/
.	8e/
.	8d/
.	2cc\
4A\	.
=30-	=30-
2G\	1ee-X
2C/	.
2G\	1dd
4B-\	.
4A\	.
=31	=31
4G\	2r
4F#X\	.
1G	2g/
.	1b-
2GG/	.
=32-	=32-
2.D/	2a\
.	2.dd\
4C/	.
4BB-/	.
4AA/	4cc\
2GG/	4b-\
.	8a\
.	8g\
=33	=33
0D	4a\
.	4d/
.	2.g/
!	!LO:SIC:v:s:t=8f#/
.	8f/
.	8e/
.	2f#X/
!LO:SIC:v:t=custos G	!LO:SIC:v:t=custos g
!LO:LB:g=original	!LO:LB:g=original
=34-	=34-
2G\	2g/
1C	4r
.	4cc\
.	2ee-X\
!LO:N:acc=#	!
2BBn/	2dd\
=35	=35
1C	4r
.	4g/
.	2cc\
2.G\	2b-\
.	2b-\
4F\	.
=36-	=36-
4E-X\	2.ee-X\
4D/	.
4C/	.
4BB-/	4dd\
0C	4cc\
.	4g/
.	4cc\
.	4dd\
=37-	=37-
.	2ee-X\
.	2cc\
[1Gl\	[1ddl\
=38-	=38-
0.G]	0.dd]
==	==
*-	*-
!!!system-decoration: g1
!!!RDF**kern: l = terminal long
!!!RDF**kern: > = above
!!!RDF**kern: < = below
!!!ENC: Filip Voros
!!!END: 2021-12-17
!!!EED: Jędrzej Mróz
!!!EST: 2021-12-23
